X:785
T:Bridge No 5
O:england
R:double jig
M:6/8
L:1/8
K:D
f3 efe|def gfe|f3 efe|d2e dBA|
f3 efe|def g2^g|agf gfe|dfe dBA:|
A3 B3|gfe fdB|A3 B3|efe dBA|
A3 B3|efe efg|agf gfe|dfe dBA:|


